X:11861
T:no name
R:reel
Z:id:hn-reel-335
M:C|
K:D
D2~D2 DFAc|d2fd ed~d2|DFAF dFAF|GFED EFGE|
D2~D2 DFAc|d2fd eddB|Acef gecd|1 eddc dBAF:|2 eddc d3e||
|:fd~d2 Ad~d2|fdad bdad|gfed c2ef|gaag fedB|
Ad~d2 BAFB|AddA BAFB|Acef gecd|1 eddc d3e:|2 eddc dBAF||
